imgs/twit-footer.svg

<svg width="18" height="15" viewBox="0 0 18 15" fill="none" xmlns="http://www.w3.org/2000/svg">
<path d="M17.7737 1.95677C17.1505 2.22561 16.4723 2.4191 15.7737 2.49446C16.499 2.06356 17.0421 1.38282 17.3012 0.579958C16.6206 0.984832 15.875 1.26874 15.0975 1.41908C14.7725 1.07167 14.3795 0.794911 13.9429 0.606043C13.5063 0.417175 13.0355 0.320247 12.5598 0.321298C10.6351 0.321298 9.0872 1.88141 9.0872 3.79591C9.0872 4.06475 9.11979 4.33359 9.17275 4.59225C6.29082 4.44154 3.7205 3.06473 2.01171 0.956747C1.70035 1.48856 1.53719 2.09409 1.5392 2.71034C1.5392 3.91607 2.15225 4.97923 3.08709 5.60449C2.53617 5.5828 1.99815 5.43137 1.5168 5.16253V5.2053C1.5168 6.89372 2.7103 8.29294 4.30096 8.61473C4.0023 8.69231 3.69506 8.732 3.38649 8.73286C3.16041 8.73286 2.94656 8.71046 2.73067 8.67991C3.17059 10.0567 4.45168 11.0567 5.97717 11.0893C4.78366 12.0242 3.28872 12.5741 1.66547 12.5741C1.37423 12.5741 1.10538 12.5639 0.826355 12.5313C2.3661 13.5191 4.19302 14.0894 6.16047 14.0894C12.5476 14.0894 16.0425 8.79804 16.0425 4.20528C16.0425 4.05457 16.0425 3.90385 16.0323 3.75313C16.7085 3.25822 17.3012 2.64517 17.7737 1.95677Z" fill="white" fill-opacity="0.8"/>
</svg>

<svg xmlns="http://www.w3.org/2000/svg" width="18" height="15" fill="none" xmlns:v="https://vecta.io/nano"><path d="M17.774 1.957c-.623.269-1.301.462-2 .538.725-.431 1.268-1.112 1.528-1.915-.681.405-1.426.689-2.204.839-.325-.347-.718-.624-1.155-.813S13.036.32 12.56.321c-1.925 0-3.473 1.56-3.473 3.475a3.99 3.99 0 0 0 .086.796A9.87 9.87 0 0 1 2.012.957a3.45 3.45 0 0 0-.473 1.754c0 1.206.613 2.269 1.548 2.894-.551-.022-1.089-.173-1.57-.442v.043c0 1.688 1.194 3.088 2.784 3.409a3.68 3.68 0 0 1-.914.118 4.62 4.62 0 0 1-.656-.053 3.48 3.48 0 0 0 3.247 2.409 6.96 6.96 0 0 1-4.312 1.485c-.291 0-.56-.01-.839-.043 1.54.988 3.367 1.558 5.334 1.558 6.387 0 9.882-5.291 9.882-9.884 0-.151 0-.301-.01-.452a7.48 7.48 0 0 0 1.741-1.796z" fill="#fff" fill-opacity=".8"/></svg>
